build/Karasa-Jaga/scalable/devices/drive-removable-media-symbolic.svg

<svg height="16" width="16" xmlns="http://www.w3.org/2000/svg"><g fill="#bebebe"><path d="m2.5659425 11.779661c-.8098185-.0013-1.4376715.692922-1.4376715 1.525693v1.114928c0 .832771.627853 1.524437 1.4376715 1.525693l10.9247885.01695c.809819.0013 1.437672-.692922 1.437672-1.525693v-1.114928c0-.832771-.627853-1.524436-1.437672-1.525693zm.011985 1.650517 10.9247885.01695c.05801.00009.146701.03087.146701.234722v1.114928c0 .203852-.08869.234812-.146701.234722l-10.9247885-.01695c-.058017-.00009-.1467012-.03087-.1467012-.234722v-1.114928c0-.203854.088685-.234812.1467012-.234722z"/><path d="m2.8437502.00000135c-.8215224-.001373-1.1623711 1.04564795-1.1562501 1.31249995l-.6875 10.9999997c.153165-.670693.6175503-1.157078 1.1875001-1.15625h11.6562498c.521856.000758.967768.416136 1.15625 1l-.59375-10.7499997c.02502-.3780782-.39306-1.37330611-1.40625-1.37499995zm-.029297.63867193h10.4199218c.2535.024012.623621.42161642.558594 1.11718742l.0957 8.7480463h-11.7773408l.232422-8.7597651c.0530219-.7154511.2268403-.97988772.470703-1.10546862z"/></g></svg>

<?xml version="1.0" encoding="UTF-8" standalone="no"?>
<!-- Created with Inkscape (http://www.inkscape.org/) -->

<svg
   xmlns:dc="http://purl.org/dc/elements/1.1/"
   xmlns:cc="http://creativecommons.org/ns#"
   xmlns:rdf="http://www.w3.org/1999/02/22-rdf-syntax-ns#"
   xmlns:svg="http://www.w3.org/2000/svg"
   xmlns="http://www.w3.org/2000/svg"
   xmlns:xlink="http://www.w3.org/1999/xlink"
   xmlns:sodipodi="http://sodipodi.sourceforge.net/DTD/sodipodi-0.dtd"
   xmlns:inkscape="http://www.inkscape.org/namespaces/inkscape"
   version="1.1"
   width="16"
   height="16"
   id="svg3808"
   inkscape:version="0.92.2 (unknown)"
   sodipodi:docname="drive-removable-media-symbolic.svg">
  <sodipodi:namedview
     pagecolor="#ffffff"
     bordercolor="#666666"
     borderopacity="1"
     objecttolerance="10"
     gridtolerance="10"
     guidetolerance="10"
     inkscape:pageopacity="0"
     inkscape:pageshadow="2"
     inkscape:window-width="1366"
     inkscape:window-height="697"
     id="namedview7"
     showgrid="false"
     showguides="true"
     inkscape:guide-bbox="true"
     inkscape:zoom="10.429825"
     inkscape:cx="-2.2674265"
     inkscape:cy="-0.31999004"
     inkscape:window-x="0"
     inkscape:window-y="0"
     inkscape:window-maximized="1"
     inkscape:current-layer="svg3808">
    <inkscape:grid
       type="xygrid"
       id="grid3053" />
  </sodipodi:namedview>
  <defs
     id="defs3810">
    <linearGradient
       inkscape:collect="always"
       xlink:href="#XMLID_19_"
       id="linearGradient12942"
       gradientUnits="userSpaceOnUse"
       gradientTransform="matrix(0,-0.44649484,0.43865775,0,44.314056,98.880451)"
       x1="180.37399"
       y1="-157.96339"
       x2="188.83299"
       y2="-157.96339" />
    <linearGradient
       id="XMLID_19_"
       gradientUnits="userSpaceOnUse"
       x1="180.37399"
       y1="-157.96339"
       x2="188.83299"
       y2="-157.96339"
       gradientTransform="matrix(0,-1.8884098,1.8552635,0,317.52681,460.62003)">
      <stop
         offset="0"
         style="stop-color:#DDDDDD"
         id="stop126" />
      <stop
         offset="0.2738"
         style="stop-color:#BBBBBB"
         id="stop128" />
      <stop
         offset="0.5617"
         style="stop-color:#9F9F9F"
         id="stop130" />
      <stop
         offset="0.8136"
         style="stop-color:#8E8E8E"
         id="stop132" />
      <stop
         offset="1"
         style="stop-color:#888888"
         id="stop134" />
    </linearGradient>
    <linearGradient
       inkscape:collect="always"
       xlink:href="#linearGradient6253-0"
       id="linearGradient12938"
       gradientUnits="userSpaceOnUse"
       gradientTransform="matrix(0.29171261,0,0,0.49647278,-6.3928271,69.131208)"
       x1="-35.539001"
       y1="-144.21001"
       x2="-35.539001"
       y2="-108.32" />
    <linearGradient
       id="linearGradient6253-0">
      <stop
         style="stop-color:#ffffff;stop-opacity:1"
         offset="0"
         id="stop6255-0" />
      <stop
         id="stop6257-8"
         offset="0.64336616"
         style="stop-color:#efefef;stop-opacity:1" />
      <stop
         style="stop-color:#e5e5e5;stop-opacity:1"
         offset="1"
         id="stop6259-5" />
    </linearGradient>
    <linearGradient
       inkscape:collect="always"
       xlink:href="#linearGradient3214"
       id="linearGradient12940"
       gradientUnits="userSpaceOnUse"
       gradientTransform="matrix(0.79749691,0,0,1.368051,-28.610824,-12.086273)"
       x1="7.8513999"
       y1="19.968"
       x2="7.8513999"
       y2="7.0348001" />
    <linearGradient
       x1="7.8513999"
       y1="19.968"
       gradientTransform="matrix(0.64516,0,0,0.97976,0.25806,-6.7257)"
       x2="7.8513999"
       gradientUnits="userSpaceOnUse"
       y2="7.0348001"
       id="linearGradient3214">
      <stop
         offset="0"
         style="stop-color:#848484;stop-opacity:1;"
         id="stop3486" />
      <stop
         offset="1"
         style="stop-color:#bebebe;stop-opacity:1;"
         id="stop3488" />
    </linearGradient>
    <linearGradient
       inkscape:collect="always"
       xlink:href="#linearGradient3217"
       id="linearGradient12936"
       gradientUnits="userSpaceOnUse"
       gradientTransform="matrix(0.86516705,0,0,1.4752569,9.9026508,-95.765287)"
       x1="46.426998"
       y1="101.88"
       x2="46.426998"
       y2="85.788002" />
    <linearGradient
       x1="46.426998"
       y1="101.88"
       gradientTransform="matrix(0.12584,0,0,0.1986,0.13145,-5.1684)"
       x2="46.426998"
       gradientUnits="userSpaceOnUse"
       y2="85.788002"
       id="linearGradient3217">
      <stop
         offset="0"
         style="stop-color:#aaa"
         id="stop2223" />
      <stop
         offset="1"
         style="stop-color:#646464"
         id="stop2219" />
    </linearGradient>
    <linearGradient
       y2="85.788002"
       x2="46.426998"
       y1="101.88"
       x1="46.426998"
       gradientTransform="matrix(0.15555368,0,0,0.26524546,-28.767329,-8.8387032)"
       gradientUnits="userSpaceOnUse"
       id="linearGradient13048"
       xlink:href="#linearGradient3217"
       inkscape:collect="always" />
  </defs>
  <metadata
     id="metadata3813">
    <rdf:RDF>
      <cc:Work
         rdf:about="">
        <dc:format>image/svg+xml</dc:format>
        <dc:type
           rdf:resource="http://purl.org/dc/dcmitype/StillImage" />
        <dc:title />
      </cc:Work>
    </rdf:RDF>
  </metadata>
  <path
     style="fill:#bebebe;fill-opacity:1;stroke:none"
     d="M 2.5659425,11.779661 C 1.756124,11.778361 1.128271,12.472583 1.128271,13.305354 l 0,1.114928 c 0,0.832771 0.627853,1.524437 1.4376715,1.525693 l 10.9247885,0.01695 c 0.809819,0.0013 1.437672,-0.692922 1.437672,-1.525693 l 0,-1.114928 c 0,-0.832771 -0.627853,-1.524436 -1.437672,-1.525693 z m 0.011985,1.650517 10.9247885,0.01695 c 0.05801,9e-5 0.146701,0.03087 0.146701,0.234722 l 0,1.114928 c 0,0.203852 -0.08869,0.234812 -0.146701,0.234722 L 2.5779275,15.01455 c -0.058017,-9e-5 -0.1467012,-0.03087 -0.1467012,-0.234722 l 0,-1.114928 c 0,-0.203854 0.088685,-0.234812 0.1467012,-0.234722 z"
     id="path3009"
     inkscape:connector-curvature="0"
     sodipodi:nodetypes="ssssssssssssssssss" />
  <path
     inkscape:connector-curvature="0"
     style="color:#bebebe;display:inline;overflow:visible;visibility:visible;fill:#bebebe;fill-opacity:1;fill-rule:nonzero;stroke:none;stroke-width:1;marker:none;enable-background:accumulate"
     d="M 2.8437502,1.3490973e-6 C 2.0222278,-0.00137165 1.6813791,1.0456493 1.6875001,1.3125013 l -0.6875,10.9999997 c 0.153165,-0.670693 0.6175503,-1.157078 1.1875001,-1.15625 H 13.84375 c 0.521856,7.58e-4 0.967768,0.416136 1.15625,1 L 14.40625,1.4062513 C 14.43127,1.0281731 14.01319,0.03294519 13,0.03125135 Z M 2.8144532,0.63867328 H 13.234375 c 0.2535,0.024012 0.623621,0.42161642 0.558594,1.11718742 l 0.0957,8.7480463 H 2.1113282 L 2.3437502,1.7441419 C 2.3967721,1.0286908 2.5705905,0.76425418 2.8144532,0.63867328 Z"
     id="path59"
     sodipodi:nodetypes="cccccccccccccccc" />
</svg>
